src/icons/outline/mail.svg

<svg width="24" height="24" viewBox="0 0 24 24" fill="none" xmlns="http://www.w3.org/2000/svg">
<path d="M3 8L10.8906 13.2604C11.5624 13.7083 12.4376 13.7083 13.1094 13.2604L21 8M5 19H19C20.1046 19 21 18.1046 21 17V7C21 5.89543 20.1046 5 19 5H5C3.89543 5 3 5.89543 3 7V17C3 18.1046 3.89543 19 5 19Z" stroke="#4A5568" stroke-width="2" stroke-linecap="round" stroke-linejoin="round"/>
</svg>

<svg xmlns="http://www.w3.org/2000/svg" fill="none" viewBox="0 0 24 24" stroke="currentColor">
  <path stroke-linecap="round" stroke-linejoin="round" stroke-width="2" d="M3 8l7.89 5.26a2 2 0 002.22 0L21 8M5 19h14a2 2 0 002-2V7a2 2 0 00-2-2H5a2 2 0 00-2 2v10a2 2 0 002 2z"/>
</svg>
